X: 33108
T: Prince Of Wales, The
R: reel
M: 4/4
K: Dmajor
A|F2ED D3E|FAAD BAFD|F2 ED D3F|EFAF E3A|
F2 ED D3E|FAAD BAFD|F3A BAdB|AFGE FD D2||
A|FDAD BDAG|FDAD FE E2|FDAD BDAF|EFAF D3A|
FDAD BDAG|FDAD BA (3FGA|F3A BAdB|AFGE FD D2||

